icons/capacitor-light.svg

<svg width="256" height="256" viewBox="0 0 256 256" fill="none" xmlns="http://www.w3.org/2000/svg">
<rect width="256" height="256" rx="60" fill="#F4F2ED" />
<path d="M68.248 77.9948L41.2133 105.065L82.907 146.887L41 188.917L67.9541 216.005L109.947 173.959L151.711 215.701L178.75 188.63L68.248 77.9948Z" fill="#53B9FF"/>
<path d="M137.056 146.889L109.947 173.959L151.711 215.701L178.75 188.63L137.056 146.889Z" fill="#119EFF"/>
<path d="M137.056 146.889L109.947 173.959L120.383 184.336L137.056 146.889Z" fill="black" fill-opacity="0.2"/>
<path d="M174.007 110.032L216 67.9855L188.95 41L146.973 82.9604L105.199 41.2133L78.1656 68.285L188.662 178.921L215.701 151.85L174.007 110.032Z" fill="#53B9FF"/>
<path d="M119.859 110.032L146.968 82.9617L105.199 41.2119L78.1656 68.285L119.859 110.032Z" fill="#119EFF"/>
<path d="M119.859 110.032L146.968 82.9617L136.532 72.5793L119.859 110.032Z" fill="black" fill-opacity="0.2"/>
</svg>

<svg xmlns="http://www.w3.org/2000/svg" width="256" height="256" fill="none"><rect width="256" height="256" fill="#F4F2ED" rx="60"/><path fill="#53B9FF" d="m68.248 77.995-27.035 27.07 41.694 41.822L41 188.917l26.954 27.088 41.993-42.046 41.764 41.742 27.039-27.071z"/><path fill="#119EFF" d="m137.056 146.889-27.109 27.07 41.764 41.742 27.039-27.071z"/><path fill="#000" fill-opacity=".2" d="m137.056 146.889-27.109 27.07 10.436 10.377z"/><path fill="#53B9FF" d="M174.007 110.032 216 67.986 188.95 41l-41.977 41.96-41.774-41.747-27.033 27.072 110.496 110.636 27.039-27.071z"/><path fill="#119EFF" d="m119.859 110.032 27.109-27.07-41.769-41.75-27.033 27.073z"/><path fill="#000" fill-opacity=".2" d="m119.859 110.032 27.109-27.07-10.436-10.383z"/></svg>
